build/finance/EURSolid.svg

<svg xmlns="http://www.w3.org/2000/svg" fill="none" viewBox="0 0 24 24" focusable="false"><path d="M0 0H24V24H0z"/><path fill="#74767B" fill-rule="evenodd" d="M12 3C7.02944 3 3 7.02944 3 12C3 16.9706 7.02944 21 12 21C16.9706 21 21 16.9706 21 12C21 7.02944 16.9706 3 12 3ZM7.58542 11.4871C7.56694 11.6555 7.55746 11.8267 7.55746 12C7.55746 12.1734 7.56694 12.3445 7.58542 12.5129L6.85737 12.5129C6.49839 12.5129 6.20737 12.8039 6.20737 13.1629C6.20737 13.5219 6.49839 13.8129 6.85737 13.8129L7.92412 13.8129C8.63072 15.4803 10.2825 16.65 12.2075 16.65C13.3863 16.65 14.4641 16.2105 15.2834 15.4873C15.5526 15.2498 15.5782 14.839 15.3406 14.5699C15.1031 14.3007 14.6923 14.2751 14.4232 14.5127C13.8322 15.0343 13.0575 15.35 12.2075 15.35C11.0253 15.35 9.98618 14.7377 9.38991 13.8129L12.5655 13.8129C12.9245 13.8129 13.2155 13.5219 13.2155 13.1629C13.2155 12.8039 12.9245 12.5129 12.5655 12.5129L8.89648 12.5129C8.87078 12.3457 8.85746 12.1744 8.85746 12C8.85746 11.8256 8.87078 11.6543 8.89647 11.4871L12.5655 11.4871C12.9245 11.4871 13.2155 11.1961 13.2155 10.8371C13.2155 10.4781 12.9245 10.1871 12.5655 10.1871L9.3899 10.1871C9.98617 9.26233 11.0253 8.65001 12.2075 8.65001C13.0575 8.65001 13.8322 8.96576 14.4232 9.48734C14.6923 9.72489 15.1031 9.69928 15.3406 9.43013C15.5782 9.16099 15.5526 8.75023 15.2834 8.51268C14.4641 7.78953 13.3863 7.35001 12.2075 7.35001C10.2825 7.35001 8.63071 8.5197 7.92411 10.1871L6.85737 10.1871C6.49839 10.1871 6.20737 10.4781 6.20737 10.8371C6.20737 11.1961 6.49839 11.4871 6.85737 11.4871L7.58542 11.4871Z"/></svg>

<svg xmlns="http://www.w3.org/2000/svg" fill="none" viewBox="0 0 24 24" focusable="false"><path fill="#74767B" fill-rule="evenodd" d="M12 3c-4.98 0-9 4.02-9 9 0 4.97 4.02 9 9 9a9 9 0 0 0 9-9c0-4.98-4.03-9-9-9m-4.42 8.48a4.4 4.4 0 0 0 0 1.03h-.73c-.36 0-.65.29-.65.65s.29.65.65.65h1.07a4.65 4.65 0 0 0 4.28 2.84c1.18 0 2.26-.44 3.08-1.17a.66.66 0 0 0 .06-.92.66.66 0 0 0-.92-.05c-.59.52-1.37.84-2.22.84-1.18 0-2.22-.62-2.82-1.54h3.18c.36 0 .65-.29.65-.65s-.29-.65-.65-.65H8.89c-.02-.17-.04-.34-.04-.51 0-.18.02-.35.04-.52h3.67c.36 0 .65-.29.65-.65s-.29-.65-.65-.65H9.38c.6-.92 1.64-1.53 2.82-1.53.85 0 1.63.31 2.22.83.27.24.68.21.92-.05a.66.66 0 0 0-.06-.92c-.82-.73-1.9-1.17-3.08-1.17-1.92 0-3.57 1.17-4.28 2.84H6.85c-.36 0-.65.29-.65.65s.29.65.65.65z"/></svg>
